Final project/assets/images/play-icon-video.svg

<svg width="64" height="64" viewBox="0 0 64 64" fill="none" xmlns="http://www.w3.org/2000/svg">
<g filter="url(#filter0_b_1_691)">
<path d="M0 32C0 14.3269 14.3269 0 32 0C49.6731 0 64 14.3269 64 32C64 49.6731 49.6731 64 32 64C14.3269 64 0 49.6731 0 32Z" fill="white"/>
</g>
<path d="M23.9805 36.5716V27.1468C23.9805 23.1289 23.9805 21.12 25.289 20.3456C26.5976 19.5713 28.3586 20.5381 31.8805 22.4717L39.959 26.9069C43.5283 28.8665 45.3129 29.8463 45.3522 31.3782C45.3914 32.91 43.6592 33.9799 40.1949 36.1196L32.1164 41.1092C28.5161 43.3329 26.716 44.4448 25.3482 43.682C23.9805 42.9191 23.9805 40.8033 23.9805 36.5716Z" fill="#1D2130"/>
<defs>
<filter id="filter0_b_1_691" x="-80" y="-80" width="224" height="224" filterUnits="userSpaceOnUse" color-interpolation-filters="sRGB">
<feFlood flood-opacity="0" result="BackgroundImageFix"/>
<feGaussianBlur in="BackgroundImageFix" stdDeviation="40"/>
<feComposite in2="SourceAlpha" operator="in" result="effect1_backgroundBlur_1_691"/>
<feBlend mode="normal" in="SourceGraphic" in2="effect1_backgroundBlur_1_691" result="shape"/>
</filter>
</defs>
</svg>

<svg width="64" height="64" fill="none" xmlns="http://www.w3.org/2000/svg"><g filter="url(#a)"><path d="M0 32C0 14.327 14.327 0 32 0c17.673 0 32 14.327 32 32 0 17.673-14.327 32-32 32C14.327 64 0 49.673 0 32Z" fill="#fff"/></g><path d="M23.98 36.572v-9.425c0-4.018 0-6.027 1.309-6.801 1.309-.775 3.07.192 6.591 2.126l8.079 4.435c3.57 1.96 5.354 2.94 5.393 4.471.04 1.532-1.693 2.602-5.157 4.742l-8.079 4.99c-3.6 2.223-5.4 3.335-6.768 2.572-1.367-.763-1.367-2.879-1.367-7.11Z" fill="#1D2130"/><defs><filter id="a" x="-80" y="-80" width="224" height="224" filterUnits="userSpaceOnUse" color-interpolation-filters="sRGB"><feFlood flood-opacity="0" result="BackgroundImageFix"/><feGaussianBlur in="BackgroundImageFix" stdDeviation="40"/><feComposite in2="SourceAlpha" operator="in" result="effect1_backgroundBlur_1_691"/><feBlend in="SourceGraphic" in2="effect1_backgroundBlur_1_691" result="shape"/></filter></defs></svg>
